packages/match-logos/color/svg/chime.svg

<svg fill="none" height="30" viewBox="0 0 98 30" width="98" xmlns="http://www.w3.org/2000/svg" xmlns:xlink="http://www.w3.org/1999/xlink"><clipPath id="a"><path d="m0 0h97.8383v30h-97.8383z"/></clipPath><g clip-path="url(#a)" fill="#1ec677"><path d="m69.7669 8.72474c-1.8352 0-4.028.65319-6.1276 2.92376-2.0995-2.27057-4.3079-2.92376-6.1275-2.92376 0 0-7.014-.52877-7.014 7.66716v13.266h5.0855v-12.5195c0-3.6703 2.4573-3.748 2.9394-3.6392 0 0 .8865.0467 1.6952.8865 0 0-1.6175 2.1151-1.7419 4.7745 0 0-.3577 6.8896 5.1633 6.8896s5.1633-6.8896 5.1633-6.8896c-.1244-2.6594-1.7418-4.7745-1.7418-4.7745.8087-.8398 1.6952-.8865 1.6952-.8865.4665-.1088 2.9393-.0311 2.9393 3.6392v12.5195h5.0856v-13.266c-.0156-8.19593-7.014-7.66716-7.014-7.66716zm-6.1431 13.59256c-1.0887 0-1.4464-1.3686-1.4619-2.675-.0311-2.2706 1.4463-3.9036 1.4619-3.9347.0311.0311 1.493 1.6641 1.4619 3.9347 0 1.3064-.3733 2.675-1.4619 2.675z"/><path d="m47.6361 9.06683h-5.0856v20.60657h5.0856z"/><path d="m45.1012.139954c-1.6952 0-3.0949 1.368586-3.0949 3.048216 0 1.69517 1.3842 3.09486 3.0949 3.09486 1.6796 0 3.0482-1.38413 3.0482-3.09486 0-1.64853-1.3841-3.048216-3.0482-3.048216z"/><path d="m26.4542 10.451v-10.451h-5.0389v29.6734h5.0389v-14.8522c8.3514-4.0591 8.0404 2.3639 8.0404 2.3639v12.4883h5.0544v-12.4883c-.0155-12.06846-10.5598-8.08712-13.0948-6.7341z"/><path d="m83.7636 20.3733c2.7061.9486 6.1431.8709 6.1431.8709 8.1493-.0467 7.916-5.972 7.916-5.972-.2021-6.67188-8.0404-6.54746-8.0404-6.54746-6.4852 0-11.0264 4.44786-11.0264 10.80876 0 6.3608 4.4479 10.4665 11.3219 10.4665 2.9238 0 5.7076-.8087 7.6516-2.2239v-4.8989c-2.0373 1.7573-4.479 2.6905-7.0606 2.6905.0155 0-7.0451.3577-6.9052-5.1944zm.6221-4.3391c.8554-2.1617 2.6283-3.297 5.1478-3.297 2.0684 0 3.2659.8709 3.2659 2.255 0 1.944-2.1928 2.1151-4.2457 2.1151-2.0218 0-3.266-.2177-3.8258-.3577l-.5444-.1244z"/><path d="m10.9798 30c3.577 0 6.112-1.353 7.6205-2.4883v-4.93c-2.2239 1.7574-4.8367 2.7683-7.154 2.7683-3.70135 0-6.29855-2.5506-6.29855-6.2209 0-3.4837 2.36391-5.9098 5.73875-5.9098 1.1042 0 2.0528.28 3.0637.5599 1.042.2955 2.1307.6221 3.4215.6221.4044 0 .8087-.0311 1.2131-.0933v-4.69677c-.3422.03111-.6688.06221-1.0109.06221-1.1664 0-2.224-.21773-3.3282-.45101-1.1664-.24883-2.3639-.49767-3.7791-.49767-2.81497 0-5.42772.99534-7.34063 2.83044-2.03732 1.9441-3.12597 4.6501-3.12597 7.8072 0 6.2675 4.51011 10.6376 10.9798 10.6376z"/></g></svg>

<svg width="98" height="30" viewBox="0 0 98 30" fill="none" xmlns="http://www.w3.org/2000/svg">
<g clip-path="url(#clip0)">
<path d="M69.7669 8.72474C67.9317 8.72474 65.7389 9.37793 63.6393 11.6485C61.5398 9.37793 59.3314 8.72474 57.5118 8.72474C57.5118 8.72474 50.4978 8.19597 50.4978 16.3919V29.6579H55.5833V17.1384C55.5833 13.4681 58.0406 13.3904 58.5227 13.4992C58.5227 13.4992 59.4092 13.5459 60.2179 14.3857C60.2179 14.3857 58.6004 16.5008 58.476 19.1602C58.476 19.1602 58.1183 26.0498 63.6393 26.0498C69.1603 26.0498 68.8026 19.1602 68.8026 19.1602C68.6782 16.5008 67.0608 14.3857 67.0608 14.3857C67.8695 13.5459 68.756 13.4992 68.756 13.4992C69.2225 13.3904 71.6953 13.4681 71.6953 17.1384V29.6579H76.7809V16.3919C76.7653 8.19597 69.7669 8.72474 69.7669 8.72474ZM63.6238 22.3173C62.5351 22.3173 62.1774 20.9487 62.1619 19.6423C62.1308 17.3717 63.6082 15.7387 63.6238 15.7076C63.6549 15.7387 65.1168 17.3717 65.0857 19.6423C65.0857 20.9487 64.7124 22.3173 63.6238 22.3173Z" fill="#1EC677"/>
<path d="M47.6361 9.06683H42.5505V29.6734H47.6361V9.06683Z" fill="#1EC677"/>
<path d="M45.1012 0.139954C43.406 0.139954 42.0063 1.50854 42.0063 3.18817C42.0063 4.88334 43.3905 6.28303 45.1012 6.28303C46.7808 6.28303 48.1494 4.8989 48.1494 3.18817C48.1494 1.53964 46.7653 0.139954 45.1012 0.139954Z" fill="#1EC677"/>
<path d="M26.4542 10.451V0H21.4153V29.6734H26.4542V14.8212C34.8056 10.7621 34.4946 17.1851 34.4946 17.1851V29.6734H39.549V17.1851C39.5335 5.11664 28.9892 9.09798 26.4542 10.451Z" fill="#1EC677"/>
<path d="M83.7636 20.3733C86.4697 21.3219 89.9067 21.2442 89.9067 21.2442C98.056 21.1975 97.8227 15.2722 97.8227 15.2722C97.6206 8.60032 89.7823 8.72474 89.7823 8.72474C83.2971 8.72474 78.7559 13.1726 78.7559 19.5335C78.7559 25.8943 83.2038 30 90.0778 30C93.0016 30 95.7854 29.1913 97.7294 27.7761V22.8772C95.6921 24.6345 93.2504 25.5677 90.6688 25.5677C90.6843 25.5677 83.6237 25.9254 83.7636 20.3733ZM84.3857 16.0342C85.2411 13.8725 87.014 12.7372 89.5335 12.7372C91.6019 12.7372 92.7994 13.6081 92.7994 14.9922C92.7994 16.9362 90.6066 17.1073 88.5537 17.1073C86.5319 17.1073 85.2877 16.8896 84.7279 16.7496L84.1835 16.6252L84.3857 16.0342Z" fill="#1EC677"/>
<path d="M10.9798 30C14.5568 30 17.0918 28.647 18.6003 27.5117V22.5817C16.3764 24.3391 13.7636 25.35 11.4463 25.35C7.74495 25.35 5.14775 22.7994 5.14775 19.1291C5.14775 15.6454 7.51166 13.2193 10.8865 13.2193C11.9907 13.2193 12.9393 13.4993 13.9502 13.7792C14.9922 14.0747 16.0809 14.4013 17.3717 14.4013C17.7761 14.4013 18.1804 14.3702 18.5848 14.308V9.61123C18.2426 9.64234 17.916 9.67344 17.5739 9.67344C16.4075 9.67344 15.3499 9.45571 14.2457 9.22243C13.0793 8.9736 11.8818 8.72476 10.4666 8.72476C7.65163 8.72476 5.03888 9.7201 3.12597 11.5552C1.08865 13.4993 0 16.2053 0 19.3624C0 25.6299 4.51011 30 10.9798 30Z" fill="#1EC677"/>
</g>
<defs>
<clipPath id="clip0">
<rect width="97.8383" height="30" fill="white"/>
</clipPath>
</defs>
</svg>
